X: 36115
T: Schottische From Havero
R: barndance
M: 4/4
K: Eminor
|:F2|E2- EF GAGF|E2 B2 B2- BB|e^def g2 g2|fgf^d BAGF|
E2 EF GAGF|E2 B2 B2 B2|e^def g2- gg|f2 ^d2 e2:|
|:f/g/a|b2- b^a b2 b=a|gagf g2- ge|f2 f^d Bd f/e/d|e2 ef g2 ga|
bc'b^a b2- b=a|g2 a/g/f g2 g/f/e|fgf^d Bdfd|e2 e^d e2:|

